!!!OTL: Der Maedchenmoerder (Halewijn - Ulinger).
!!!OTL-incipit: Es ritt ein Ritter wol durch das Ried,
!!!ARE: Europa, Mitteleuropa, Deutschland (BRD), Gegend von Heidelberg
!!!YOR: 2, S. 105
!!    1806 aufgezeichnet
!!!SCT: Q0041N
!!!YEM: Copyright 1995, estate of Helmut Schaffrath.
**kern	**text
*ICvox	*
!! Mixed meters:  3/2; 6/4
*M3/2	*
*k[f#]	*
*G:	*
!LO:TX:a:t=Aufgeʒeichnet von Cl. Brentano. Gegend von Heidelberg, vor 1806.	!
{8g	Es
8g	ritt
8a	ein
=1	=1
2b/	Ritter
2a	wol
4b	durch
8ccL	das
8bJ	.
=2	=2
2a	Ried,
4r}	.
{8bL	dar-
8aJ	.
4g	-aus
8gL	ſingt
8f#J	.
=3	=3
2g	er
2b	ein
4a	ſchö-
8bL	-nes
8aJ	.
=4	=4
*M6/4	*
2.g	Lied,
4r	.
4r}	.
{4a	ein
=5	=5
4f#	Lied-
4e	-lein
4f#	auf
4d	drei-
4e	-er-
4f#	-ley
=6	=6
(2g	Stim-
8aL	.
8bJ)	.
2a}	-men,
{4b	daß
=7	=7
2e	Berg
4e	und
4.d	Tha-
8g	-le
4g	er-
=8	=8
2.a	-klin-
2g}	-gen.
{4a	ein
=9	=9
4f#	Lied-
4e	-lein
4f#	auf
4d	drei-
4e	-er-
4f#	-ley
=10	=10
(2g	Stim-
8aL	.
8bJ)	.
2a}	-men,
{4b	daß
=11	=11
2e	Berg
4e	und
4.d	Tha-
8g	-le
4g	er-
=12	=12
2.a	-klin-
2.g}	-gen.
==	==
!!!AGN: Ballade, Verfuehrung, Mord, Mordversuch bzw. Rache
!! Schlusston rhythmisch korrigiert.
!!!ONB: ESAC (Essen Associative Code) Database: BALLADE
!!!AMT: irregular
!!!AIN: vox
!!!EED: Helmut Schaffrath
!!!EEV: 1.0
!!!source: Deutsche Volkslieder mit ihren Melodien. Herausgegeben vom Deutschen Volksliedarchiv. Zweiter Band Balladen. Berlin 1939.
!!!page: 105
!!!ENC: Anna Maria Matuszewska
!!!EEV: 2025/02/17
*-	*-
